FlatUX/src/svg/Nintendo - Nintendo 64-content.svg

<svg enable-background="new 0 0 256 256" viewBox="0 0 256 256" xmlns="http://www.w3.org/2000/svg"><path d="m12 76.649c74.571-32.865 157.429-32.865 232 0v127.351h-232z" fill="#bdc1c6"/><path d="m128 62c-15.943 0-31.412 1.057-45.976 3.142-5.996.858-10.024 5-10.024 10.305v108.228c0 5.693 4.624 10.325 10.308 10.325h91.385c5.684 0 10.308-4.632 10.308-10.325v-108.228c0-5.305-4.028-9.447-10.024-10.305-14.565-2.085-30.034-3.142-45.977-3.142z" fill="#93a3a3"/><path d="m82.308 67.122c29.077-4.163 62.308-4.163 91.385 0 4.556.652 8.308 3.713 8.308 8.325v108.228c0 4.612-3.705 8.325-8.308 8.325h-91.385c-4.602 0-8.308-3.713-8.308-8.325v-108.228c0-4.612 3.751-7.673 8.308-8.325z" fill="#1b80bb"/><g fill="#93a3a3"><path d="m60 60.143h2v144h-2z"/><path d="m194 60h2v144h-2z"/><path d="m244 156-1.097.736-5.722 3.838c-3.196 2.143-5.181 6.063-5.181 10.231v33.195h2.133v-33.195c0-3.353 1.573-6.46 4.145-8.185l5.722-3.838z"/><path d="m12 156 1.097.736 5.722 3.838c3.196 2.143 5.181 6.063 5.181 10.231v33.195h-2.133v-33.195c0-3.353-1.573-6.46-4.145-8.185l-5.722-3.838z"/></g></svg>

<svg xmlns="http://www.w3.org/2000/svg" viewBox="0 0 256 256"><path fill="#bdc1c6" d="M12 76.649c74.571-32.865 157.429-32.865 232 0V204H12z"/><path fill="#93a3a3" d="M128 62c-15.943 0-31.412 1.057-45.976 3.142C76.028 66 72 70.142 72 75.447v108.228C72 189.368 76.624 194 82.308 194h91.385c5.684 0 10.308-4.632 10.308-10.325V75.447c0-5.305-4.028-9.447-10.024-10.305C159.412 63.057 143.943 62 128 62"/><path fill="#1b80bb" d="M82.308 67.122c29.077-4.163 62.308-4.163 91.385 0 4.556.652 8.308 3.713 8.308 8.325v108.228a8.3 8.3 0 0 1-8.308 8.325H82.308A8.3 8.3 0 0 1 74 183.675V75.447c0-4.612 3.751-7.673 8.308-8.325"/><path fill="#93a3a3" d="M60 60.143h2v144h-2zM194 60h2v144h-2zm50 96-1.097.736-5.722 3.838c-3.196 2.143-5.181 6.063-5.181 10.231V204h2.133v-33.195c0-3.353 1.573-6.46 4.145-8.185l5.722-3.838zm-232 0 1.097.736 5.722 3.838c3.196 2.143 5.181 6.063 5.181 10.231V204h-2.133v-33.195c0-3.353-1.573-6.46-4.145-8.185L12 158.782z"/></svg>
